!!!!SEGMENT: pl-kk--kk-i-322--008_casali-giovanni-battista--credidi-propter-et-in-saecula-saeculorum.krn
!!!cenid: 17xx:2130
!!!COM: Casali, Giovanni Battista
!!!COM-rismid: pe30000607
!!!CDT: 1715-1792/07/06
!!!CNT: Italian
!!!OPR: Credidi propter
!!!OTL: Et in saecula saeculorum
!!!OMV: 008
!!!PDT:
!!!AGN: Sacred
!!!SMS-siglum: PL-Kk
!!!SMS-shelfmark: Kk.I.322
!!!SMS-shelfwork: 001-008 M
!!!SMS-variant:
!!!SMS-altvar:
!!!NIFC-rismid: 1001146194
!!!URL-scan: http://repozytorium.nifc.pl/skany/pl-kk-nut--i-322
!!!ONB-nifc: UWAGA: części Credidi: 1. Credidi propter, 2. Calicem salutaris, 3. Vota mea, 4. O Domine, 5. Dirupisti vincula mea, 6. Vota mea, 7. Gloria Patri, 8. Et in saecula saeculorum
**kern	**fb	**kern	**text	**kern	**text	**kern	**text	**kern	**text	**kern	**text
*part6	*	*part5	*part5	*part4	*part4	*part3	*part3	*part2	*part2	*part1	*part1
*staff6	*	*staff5	*staff5	*staff4	*staff4	*staff3	*staff3	*staff2	*staff2	*staff1	*staff1
*Iorgan	*	*Iempty	*	*Itenor	*	*Ialto	*	*Ivox	*	*Ivox	*
*I"Organo	*	*I"Baſso di Ripieno	*	*I"Tenore di Ripieno	*	*I"Alto di Ripieno	*	*I"Canto di Ripieno	*	*I"Canto Solo	*
*I'org	*	*I'B rip.	*	*I'T rip.	*	*I'A rip.	*	*I'S rip.	*	*I'S Solo	*
*clefF4	*	*clefF4	*	*clefC4	*	*clefC3	*	*clefC1	*	*clefC1	*
*k[f#c#]	*	*k[f#c#]	*	*k[c#f#]	*	*k[f#c#]	*	*k[c#f#]	*	*k[c#f#]	*
*D:	*	*D:	*	*D:	*	*D:	*	*D:	*	*D:	*
*M3/4	*	*M3/4	*	*M3/4	*	*M3/4	*	*M3/4	*	*M3/4	*
=1	=1	=1	=1	=1	=1	=1	=1	=1	=1	=1	=1
*all\right	*	*all\right	*	*all\right	*	*all\right	*	*all\right	*	*all\right	*
*2\right	*	*2\right	*	*2\right	*	*2\right	*	*2\right	*	*	*
!LO:TX:a:t=All(egr)o tutti	!	!LO:TX:a:t=Tutti	!	!LO:TX:a:t=Tutti	!	!LO:TX:a:t=Tutti	!	!LO:TX:a:t=Tutti	!	!LO:TX:a:t=All(egr)o aſsai	!
!	!	!	!	!	!	!	!	!LO:TX:a:t=P:problem:znaki cc# f#	!	!LO:TX:a:t=P:problem:znaki cc# f#	!
!	!	!	!	!	!	!	!	!	!	!LO:TX:b:t=5	!
!	!	!	!	!	!	!	!	!	!	!LO:N:vis=00	!
[2.D\	5 3	2.d\	Et	2.d\	Et	2.f#\	Et	2.a\	Et	0.r	.
=2	=2	=2	=2	=2	=2	=2	=2	=2	=2	=2	=2
2.D\_	6 4	2.d\	in	2.d\	in	2.g\	in	2.b\	in	.	.
=3	=3	=3	=3	=3	=3	=3	=3	=3	=3	=3	=3
2.D\]	5 3	4.d\	sae-	4.d\	sae-	4.f#\	sae-	4.a\	sae-	.	.
.	.	8d\	-cu-	8d\	-cu-	8f#\	-cu-	8a\	-cu-	.	.
.	.	4d\	-la	4d\	-la	4f#\	-la	4a\	-la	.	.
=4	=4	=4	=4	=4	=4	=4	=4	=4	=4	=4	=4
2BB/	6	2B\	ſae-	2d\	sae-	2g\	sae-	2b\	sae-	.	.
4C#/	7	4c#\	-cu-	4e\	-cu-	4g\	-cu-	4b\	-cu-	.	.
!LO:LB:g=original	!	!LO:LB:g=original	!	!LO:LB:g=original	!	!LO:LB:g=original	!	!	!	!	!
=5	=5	=5	=5	=5	=5	=5	=5	=5	=5	=5	=5
4D\	6 4	4d\	-lo-	4d\	-lo-	4g\	-lo-	4b\	-lo-	2.r	.
4D\	x 3	2D/	-rum	2d\	-rum	2f#\	-ru(m)	2a\	-rum	.	.
4D\	.	.	.	.	.	.	.	.	.	.	.
!	!	!	!	!	!	!	!	!LO:LB:g=original	!	!	!
=6	=6	=6	=6	=6	=6	=6	=6	=6	=6	=6	=6
*	*	*	*	*	*	*	*	*	*	*2\right	*
!LO:TX:a:i:t=Solo	!	!LO:TX:b:t=19	!	!LO:TX:b:t=19	!	!LO:TX:b:t=19	!	!LO:TX:b:t=19	!	!	!
!	!	!LO:N:vis=00	!	!LO:N:vis=00	!	!LO:N:vis=00	!	!LO:N:vis=00	!	!	!
4D\	.	0.r	.	0.r	.	0.r	.	0.r	.	2.dd\	Et
4D\	.	.	.	.	.	.	.	.	.	.	.
4D\	.	.	.	.	.	.	.	.	.	.	.
=7	=7	=7	=7	=7	=7	=7	=7	=7	=7	=7	=7
4D\	6 4	.	.	.	.	.	.	.	.	2.gg\	in
4D\	.	.	.	.	.	.	.	.	.	.	.
4D\	.	.	.	.	.	.	.	.	.	.	.
=8	=8	=8	=8	=8	=8	=8	=8	=8	=8	=8	=8
4D\	5 3	.	.	.	.	.	.	.	.	4ff#\	sae-
4E\	6	.	.	.	.	.	.	.	.	4cc#\	-cu-
4F#\	.	.	.	.	.	.	.	.	.	4dd\	-la
!	!	!	!	!	!	!	!	!	!	!LO:LB:g=original	!
=9	=9	=9	=9	=9	=9	=9	=9	=9	=9	=9	=9
4G\	.	.	.	.	.	.	.	.	.	2b\	sae-
4G\	.	.	.	.	.	.	.	.	.	.	.
4E\	6	.	.	.	.	.	.	.	.	4cc#\	-cu-
!LO:LB:g=original	!	!	!	!	!	!	!	!	!	!	!
=10	=10	=10	=10	=10	=10	=10	=10	=10	=10	=10	=10
.	.	.	.	.	.	.	.	.	.	8qqee/	.
!	!	!LO:N:vis=00	!	!LO:N:vis=00	!	!LO:N:vis=00	!	!LO:N:vis=00	!	!	!
8D\L	.	0.r	.	0.r	.	0.r	.	0.r	.	4dd\	-lo-
8F#\	.	.	.	.	.	.	.	.	.	.	.
8A\	.	.	.	.	.	.	.	.	.	4dd\	-rum
8d\	.	.	.	.	.	.	.	.	.	.	.
8A\	.	.	.	.	.	.	.	.	.	4r	.
8F#\J	.	.	.	.	.	.	.	.	.	.	.
=11	=11	=11	=11	=11	=11	=11	=11	=11	=11	=11	=11
4D\	.	.	.	.	.	.	.	.	.	8ff#\L	a-
.	.	.	.	.	.	.	.	.	.	8gg\	.
4d\	.	.	.	.	.	.	.	.	.	8ff#\	.
.	.	.	.	.	.	.	.	.	.	8ee\	.
4d\	.	.	.	.	.	.	.	.	.	8dd\	.
.	.	.	.	.	.	.	.	.	.	8ff#\J	.
=12	=12	=12	=12	=12	=12	=12	=12	=12	=12	=12	=12
4c#\	6	.	.	.	.	.	.	.	.	8ee\L	.
.	.	.	.	.	.	.	.	.	.	8ff#\	.
4c#\	.	.	.	.	.	.	.	.	.	8ee\	.
.	.	.	.	.	.	.	.	.	.	8dd\J	.
4c#\	.	.	.	.	.	.	.	.	.	4cc#'\	.
!	!	!	!	!	!	!	!	!	!	!LO:LB:g=original	!
=13	=13	=13	=13	=13	=13	=13	=13	=13	=13	=13	=13
4B\	7	.	.	.	.	.	.	.	.	8dd\L	.
.	.	.	.	.	.	.	.	.	.	8ee\	.
4B\	#6	.	.	.	.	.	.	.	.	8dd\	.
.	.	.	.	.	.	.	.	.	.	8cc#\	.
4B\	.	.	.	.	.	.	.	.	.	8b\	.
.	.	.	.	.	.	.	.	.	.	8dd\J	.
=14	=14	=14	=14	=14	=14	=14	=14	=14	=14	=14	=14
!	!	!LO:N:vis=00	!	!LO:N:vis=00	!	!LO:N:vis=00	!	!LO:N:vis=00	!	!	!
4A\	.	0.r	.	0.r	.	0.r	.	0.r	.	8cc#\L	.
.	.	.	.	.	.	.	.	.	.	8dd\	.
4A\	.	.	.	.	.	.	.	.	.	8cc#\	.
.	.	.	.	.	.	.	.	.	.	8b\J	.
4A\	.	.	.	.	.	.	.	.	.	4a|\	.
!LO:LB:g=original	!	!	!	!	!	!	!	!	!	!	!
=15	=15	=15	=15	=15	=15	=15	=15	=15	=15	=15	=15
4d\	.	.	.	.	.	.	.	.	.	8ff#\L	.
.	.	.	.	.	.	.	.	.	.	8ee\	.
4d\	#	.	.	.	.	.	.	.	.	8dd\	.
.	.	.	.	.	.	.	.	.	.	8ee\	.
4d\	4	.	.	.	.	.	.	.	.	8ff#\	.
.	.	.	.	.	.	.	.	.	.	8gg#X\J	.
=16	=16	=16	=16	=16	=16	=16	=16	=16	=16	=16	=16
4c#\	6	.	.	.	.	.	.	.	.	4aa\	.
4r	.	.	.	.	.	.	.	.	.	8ee\L	.
.	.	.	.	.	.	.	.	.	.	8dd\	.
4A\	.	.	.	.	.	.	.	.	.	8cc#\	.
.	.	.	.	.	.	.	.	.	.	8ee\J	.
!	!	!	!	!	!	!	!	!	!	!LO:LB:g=original	!
=17	=17	=17	=17	=17	=17	=17	=17	=17	=17	=17	=17
4B\	#6	.	.	.	.	.	.	.	.	4dd|\	.
4r	.	.	.	.	.	.	.	.	.	8dd\L	.
.	.	.	.	.	.	.	.	.	.	8cc#\	.
4G#X\	5	.	.	.	.	.	.	.	.	8b\	.
.	.	.	.	.	.	.	.	.	.	8dd\J	.
=18	=18	=18	=18	=18	=18	=18	=18	=18	=18	=18	=18
!	!	!LO:N:vis=00	!	!LO:N:vis=00	!	!LO:N:vis=00	!	!LO:N:vis=00	!	!	!
4A\	.	0.r	.	0.r	.	0.r	.	0.r	.	8cc#\L	.
.	.	.	.	.	.	.	.	.	.	8ee\	.
4B\	.	.	.	.	.	.	.	.	.	8dd\	.
.	.	.	.	.	.	.	.	.	.	8cc#\	.
4c#\	.	.	.	.	.	.	.	.	.	8b\	.
.	.	.	.	.	.	.	.	.	.	8a\J	.
=19	=19	=19	=19	=19	=19	=19	=19	=19	=19	=19	=19
4d\	6 5	.	.	.	.	.	.	.	.	4ff#\	.
4e\	6 4	.	.	.	.	.	.	.	.	4ee\	.
4E\	x #3	.	.	.	.	.	.	.	.	4g#X/	.
!LO:LB:g=original	!	!	!	!	!	!	!	!	!	!	!
=20	=20	=20	=20	=20	=20	=20	=20	=20	=20	=20	=20
4F#\	.	.	.	.	.	.	.	.	.	4a\	-men
4F#\	.	.	.	.	.	.	.	.	.	4r	.
4F#\	.	.	.	.	.	.	.	.	.	4aa\	a-
!	!	!	!	!	!	!	!	!	!	!LO:LB:g=original	!
=21	=21	=21	=21	=21	=21	=21	=21	=21	=21	=21	=21
4E\	6 #3	.	.	.	.	.	.	.	.	4gg#X\	.
4r	.	.	.	.	.	.	.	.	.	4cc#\	.
4D/	5 3	.	.	.	.	.	.	.	.	4ff#\	.
=22	=22	=22	=22	=22	=22	=22	=22	=22	=22	=22	=22
!	!	!LO:N:vis=0	!	!LO:N:vis=0	!	!LO:N:vis=0	!	!LO:N:vis=0	!	!	!
4C#/	6	1.r	.	1.r	.	1.r	.	1.r	.	4ee\	.
4r	.	.	.	.	.	.	.	.	.	4a\	.
4BB/	#6	.	.	.	.	.	.	.	.	4dd\	.
=23	=23	=23	=23	=23	=23	=23	=23	=23	=23	=23	=23
4AA/	.	.	.	.	.	.	.	.	.	8cc#\L	.
.	.	.	.	.	.	.	.	.	.	8ee\	.
4BB/	#6	.	.	.	.	.	.	.	.	8dd\	.
.	.	.	.	.	.	.	.	.	.	8cc#\	.
4C#/	.	.	.	.	.	.	.	.	.	8b\	.
.	.	.	.	.	.	.	.	.	.	8a\J	.
=24	=24	=24	=24	=24	=24	=24	=24	=24	=24	=24	=24
4D\	6 5	2.r	.	2.r	.	2.r	.	2.r	.	4ff#\	.
4E\	6 4	.	.	.	.	.	.	.	.	4ee\	.
4EE/	x #3	.	.	.	.	.	.	.	.	4g#X/	.
!LO:LB:g=original	!	!	!	!	!	!	!	!	!	!LO:LB:g=original	!
=25	=25	=25	=25	=25	=25	=25	=25	=25	=25	=25	=25
!LO:TX:a:i:t=Tutti	!	!	!	!	!	!	!	!	!	!	!
[2.A\	5	2.A\	Et	2.e\	Et	2.a\	Et	2.cc#\	Et	4a\	-men
.	3	.	.	.	.	.	.	.	.	4r	.
.	.	.	.	.	.	.	.	.	.	4r	.
=26	=26	=26	=26	=26	=26	=26	=26	=26	=26	=26	=26
!	!	!	!	!	!	!	!	!	!	!LO:TX:b:t=4	!
!	!	!	!	!	!	!	!	!	!	!LO:N:vis=00	!
2.A\_	6 4	2.A\	in	2.f#\	in	2.a\	in	2.dd\	in	0.r	.
=27	=27	=27	=27	=27	=27	=27	=27	=27	=27	=27	=27
2.A\]	5	4.A\	ſae-	4.e\	sae-	4.a\	sae-	4.cc#\	sae-	.	.
.	3	8A\	-cu-	8e\	-cu-	8a\	-cu-	8cc#\	-cu-	.	.
.	.	4A\	-la	4e\	-la	4a\	-la	4cc#\	-la	.	.
!	!	!LO:LB:g=original	!	!LO:LB:g=original	!	!LO:LB:g=original	!	!	!	!	!
=28	=28	=28	=28	=28	=28	=28	=28	=28	=28	=28	=28
2F#\	6	2F#\	ſae-	2f#\	sae-	2a\	sae-	2dd\	sae-	.	.
4G#X\	5	4G#X\	-cu-	4f#\	-cu-	4b\	-cu-	4dd\	-cu-	.	.
=29	=29	=29	=29	=29	=29	=29	=29	=29	=29	=29	=29
4A\	6 4	4A\	-lo-	4f#\	-lo-	4a\	-lo-	4dd\	-lo-	.	.
4AA/	x 3	2AA/	-rum	2e\	-rum	2a\	-rum	2cc#\	-rum	.	.
4AA/	.	.	.	.	.	.	.	.	.	.	.
!	!	!	!	!	!	!	!	!LO:LB:g=original	!	!	!
=30	=30	=30	=30	=30	=30	=30	=30	=30	=30	=30	=30
!LO:TX:a:i:t=Solo	!	!LO:TX:b:t=4	!	!LO:TX:b:t=4	!	!LO:TX:b:t=4	!	!LO:TX:b:t=4	!	!	!
!	!	!LO:N:vis=00	!	!LO:N:vis=00	!	!LO:N:vis=00	!	!LO:N:vis=00	!	!	!
4AA/	.	0.r	.	0.r	.	0.r	.	0.r	.	8a\L	a-
.	.	.	.	.	.	.	.	.	.	8b\	.
4r	.	.	.	.	.	.	.	.	.	8cc#\	.
.	.	.	.	.	.	.	.	.	.	8dd\	.
4r	.	.	.	.	.	.	.	.	.	8ee\	.
.	.	.	.	.	.	.	.	.	.	8ff#\J	.
!LO:LB:g=original	!	!	!	!	!	!	!	!	!	!	!
=31	=31	=31	=31	=31	=31	=31	=31	=31	=31	=31	=31
4A#X\	7	.	.	.	.	.	.	.	.	4gg\	.
4A#\	6	.	.	.	.	.	.	.	.	4ff#\	.
4A#\	5	.	.	.	.	.	.	.	.	4ee\	.
=32	=32	=32	=32	=32	=32	=32	=32	=32	=32	=32	=32
4B\	5	.	.	.	.	.	.	.	.	8dd\L	.
.	.	.	.	.	.	.	.	.	.	8ee\	.
4r	.	.	.	.	.	.	.	.	.	8dd\	.
.	.	.	.	.	.	.	.	.	.	8b\	.
(4A#X\	5	.	.	.	.	.	.	.	.	8cc#\	.
.	.	.	.	.	.	.	.	.	.	8ee\J	.
!	!	!	!	!	!	!	!	!	!	!LO:LB:g=original	!
=33	=33	=33	=33	=33	=33	=33	=33	=33	=33	=33	=33
4B\)	3	.	.	.	.	.	.	.	.	8dd\L	.
.	.	.	.	.	.	.	.	.	.	8ee\	.
4r	.	.	.	.	.	.	.	.	.	8dd\	.
.	.	.	.	.	.	.	.	.	.	8b\	.
4A#X\	5	.	.	.	.	.	.	.	.	8cc#\	.
.	.	.	.	.	.	.	.	.	.	8ee\J	.
=34	=34	=34	=34	=34	=34	=34	=34	=34	=34	=34	=34
!LO:TX:a:i:t=tutti	!	!	!	!	!	!	!	!	!	!	!
4B\	3	4B\	a-	4d\	a-	4f#\	a-	4b\	a-	4dd\	.
4E\	6 5	4E\	.	4e\	.	4g\	.	4cc#\	.	4ee\	.
4F#\	#3	4F#\	.	4c#\	.	4f#\	.	4a#X\	.	4cc#\	.
=35	=35	=35	=35	=35	=35	=35	=35	=35	=35	=35	=35
4BB/	.	2BB/	-men	2d\	-men	2e\	-men	2b\	-men	4dd\	-men
8B\L	.	.	.	.	.	.	.	.	.	4r	.
!LO:TX:a:i:t=Solo	!	!	!	!	!	!	!	!	!	!	!
8A\	.	.	.	.	.	.	.	.	.	.	.
8G#X\	.	4r	.	4r	.	4r	.	4r	.	4r	.
8F#\J	.	.	.	.	.	.	.	.	.	.	.
!LO:LB:g=original	!	!	!	!	!	!LO:LB:g=original	!	!	!	!	!
=36	=36	=36	=36	=36	=36	=36	=36	=36	=36	=36	=36
!	!	!LO:TX:b:t=4	!	!LO:TX:b:t=4	!	!LO:TX:b:t=4	!	!LO:TX:b:t=4	!	!	!
!	!	!LO:N:vis=00	!	!LO:N:vis=00	!	!LO:N:vis=00	!	!LO:N:vis=00	!	!	!
4E\	#3	0.r	.	0.r	.	0.r	.	0.r	.	8g#X\L	a-
.	.	.	.	.	.	.	.	.	.	8a\	.
4r	.	.	.	.	.	.	.	.	.	8b\	.
.	.	.	.	.	.	.	.	.	.	8cc#\	.
4r	.	.	.	.	.	.	.	.	.	8dd\	.
.	.	.	.	.	.	.	.	.	.	8ee\J	.
!	!	!	!	!	!	!	!	!	!	!LO:LB:g=original	!
=37	=37	=37	=37	=37	=37	=37	=37	=37	=37	=37	=37
4G#X\	7	.	.	.	.	.	.	.	.	4ff#\	.
4G#\	6	.	.	.	.	.	.	.	.	4ee\	.
4G#\	5	.	.	.	.	.	.	.	.	4dd\	.
=38	=38	=38	=38	=38	=38	=38	=38	=38	=38	=38	=38
4A\	.	.	.	.	.	.	.	.	.	8cc#\L	.
.	.	.	.	.	.	.	.	.	.	8dd\	.
4r	.	.	.	.	.	.	.	.	.	8cc#\	.
.	.	.	.	.	.	.	.	.	.	8a\	.
(4G#X\	5	.	.	.	.	.	.	.	.	8b\	.
.	.	.	.	.	.	.	.	.	.	8dd\J	.
=39	=39	=39	=39	=39	=39	=39	=39	=39	=39	=39	=39
4A\)	3	.	.	.	.	.	.	.	.	8cc#\L	.
.	.	.	.	.	.	.	.	.	.	8dd\	.
4r	.	.	.	.	.	.	.	.	.	8cc#\	.
.	.	.	.	.	.	.	.	.	.	8a\	.
4G#X\	5	.	.	.	.	.	.	.	.	8b\	.
.	.	.	.	.	.	.	.	.	.	8dd\J	.
!	!	!LO:LB:g=original	!	!LO:LB:g=original	!	!	!	!	!	!	!
=40	=40	=40	=40	=40	=40	=40	=40	=40	=40	=40	=40
!LO:TX:a:i:t=tutti	!	!	!	!	!	!	!	!	!	!	!
4A\	3	4A\	a-	4e\	a-	4a\	a-	4cc#\	a-	4cc#\	.
4D\	.	4D\	.	4f#\	.	4b\	.	4dd\	.	4dd\	.
4E\	#3	4E\	.	4e\	.	4g#X\	.	4b\	.	4b\	.
!LO:LB:g=original	!	!	!	!	!	!	!	!	!	!LO:LB:g=original	!
=41	=41	=41	=41	=41	=41	=41	=41	=41	=41	=41	=41
!LO:TX:a:i:t=Solo	!	!	!	!	!	!	!	!	!	!	!
2AA/	.	2AA/	-men	2e\	-men	2a\	-men	2cc#\	-men	4cc#\	-men
.	.	.	.	.	.	.	.	.	.	4r	.
4AA/	8 6	4r	.	4r	.	4r	.	4r	.	4aa\	a-
=42	=42	=42	=42	=42	=42	=42	=42	=42	=42	=42	=42
!	!	!LO:TX:b:t=2	!	!LO:TX:b:t=2	!	!LO:TX:b:t=2	!	!LO:TX:b:t=2	!	!	!
!	!	!LO:N:vis=0	!	!LO:N:vis=0	!	!LO:N:vis=0	!	!LO:N:vis=0	!	!	!
4AA/	7 5	1.r	.	1.r	.	1.r	.	1.r	.	8gg\L	.
.	.	.	.	.	.	.	.	.	.	8aa\	.
4AA/	.	.	.	.	.	.	.	.	.	8gg\	.
.	.	.	.	.	.	.	.	.	.	8ff#\	.
4AA/	.	.	.	.	.	.	.	.	.	8ee\	.
.	.	.	.	.	.	.	.	.	.	8gg\J	.
=43	=43	=43	=43	=43	=43	=43	=43	=43	=43	=43	=43
4AA/	6 4	.	.	.	.	.	.	.	.	8ff#\L	.
.	.	.	.	.	.	.	.	.	.	8gg\	.
4AA/	.	.	.	.	.	.	.	.	.	8ff#\	.
.	.	.	.	.	.	.	.	.	.	8ee\	.
4AA/	.	.	.	.	.	.	.	.	.	8dd\	.
.	.	.	.	.	.	.	.	.	.	8ff#\J	.
!	!	!	!	!	!	!	!	!LO:LB:g=original	!	!	!
=44	=44	=44	=44	=44	=44	=44	=44	=44	=44	=44	=44
!LO:TX:a:i:t=Tutti	!	!	!	!	!	!	!	!	!	!	!
4AA/	5 3	4A\	a-	4e\	a-	4a\	a-	4cc#\	a-	4ee\	.
4AA/	.	4AA/	-men	4c#\	-men	4e\	-men	4a\	-men	4a\	-men
!LO:TX:a:i:t=Solo	!	!	!	!	!	!	!	!	!	!	!
4AA/	8 6	4r	.	4r	.	4r	.	4r	.	4aa\	a-
!	!	!	!	!	!	!	!	!	!	!LO:PB:g=original	!
=45	=45	=45	=45	=45	=45	=45	=45	=45	=45	=45	=45
!	!	!LO:TX:b:t=2	!	!LO:TX:b:t=2	!	!LO:TX:b:t=2	!	!LO:TX:b:t=2	!	!	!
!	!	!LO:N:vis=0	!	!LO:N:vis=0	!	!LO:N:vis=0	!	!LO:N:vis=0	!	!	!
4AA/	7	1.r	.	1.r	.	1.r	.	1.r	.	8gg\L	.
.	.	.	.	.	.	.	.	.	.	8aa\	.
4AA/	.	.	.	.	.	.	.	.	.	8gg\	.
.	.	.	.	.	.	.	.	.	.	8ff#\	.
4AA/	.	.	.	.	.	.	.	.	.	8ee\	.
.	.	.	.	.	.	.	.	.	.	8gg\J	.
=46	=46	=46	=46	=46	=46	=46	=46	=46	=46	=46	=46
4AA/	8 4	.	.	.	.	.	.	.	.	8ff#\L	.
.	.	.	.	.	.	.	.	.	.	8gg\	.
4AA/	.	.	.	.	.	.	.	.	.	8ff#\	.
.	.	.	.	.	.	.	.	.	.	8ee\J	.
!LO:TX:b:i:t=Uolti	!	!	!	!	!	!	!	!	!	!	!
4AA/	.	.	.	.	.	.	.	.	.	4dd|\	.
!LO:PB:g=original	!	!	!	!	!	!LO:LB:g=original	!	!	!	!	!
=47	=47	=47	=47	=47	=47	=47	=47	=47	=47	=47	=47
!LO:TX:a:i:t=tutti	!	!	!	!	!	!	!	!	!	!	!
4AA/	5 3	4A\	a-	4e\	a-	4a\	a-	4cc#\	a-	8gg\L	.
.	.	.	.	.	.	.	.	.	.	8aa\	.
4AA/	.	4AA/	-men	4c#\	-men	4e\	-men	4a\	-men	8gg\	.
.	.	.	.	.	.	.	.	.	.	8ff#\	.
!LO:TX:a:i:t=Solo	!	!	!	!	!	!	!	!	!	!	!
4AA/	8 6	4r	.	4r	.	4r	.	4r	.	8ee\	.
.	.	.	.	.	.	.	.	.	.	8gg\J	.
!	!	!LO:LB:g=original	!	!LO:LB:g=original	!	!	!	!	!	!	!
=48	=48	=48	=48	=48	=48	=48	=48	=48	=48	=48	=48
!	!	!LO:TX:b:t=5	!	!LO:TX:b:t=5	!	!LO:TX:b:t=5	!	!LO:TX:b:t=5	!	!	!
!	!	!LO:N:vis=00	!	!LO:N:vis=00	!	!LO:N:vis=00	!	!LO:N:vis=00	!	!	!
4AA/	7 4	0.r	.	0.r	.	0.r	.	0.r	.	8ff#\L	.
.	.	.	.	.	.	.	.	.	.	8gg\	.
4r	.	.	.	.	.	.	.	.	.	8ff#\	.
.	.	.	.	.	.	.	.	.	.	8ee\J	.
4AA/	.	.	.	.	.	.	.	.	.	4dd|\	.
=49	=49	=49	=49	=49	=49	=49	=49	=49	=49	=49	=49
4D\	.	.	.	.	.	.	.	.	.	4bb\	.
4r	.	.	.	.	.	.	.	.	.	4aa\	.
4F#\	6	.	.	.	.	.	.	.	.	4cc#\	.
!	!	!	!	!	!	!	!	!	!	!LO:LB:g=original	!
=50	=50	=50	=50	=50	=50	=50	=50	=50	=50	=50	=50
4E\	5	.	.	.	.	.	.	.	.	4dd\	-men
4r	.	.	.	.	.	.	.	.	.	4r	.
4C#/	5	.	.	.	.	.	.	.	.	4r	.
=51	=51	=51	=51	=51	=51	=51	=51	=51	=51	=51	=51
!	!	!	!	!	!	!	!	!	!	!LO:TX:b:t=4	!
!	!	!	!	!	!	!	!	!	!	!LO:N:vis=00	!
4D\	.	.	.	.	.	.	.	.	.	0.r	.
4r	.	.	.	.	.	.	.	.	.	.	.
4F#\	6	.	.	.	.	.	.	.	.	.	.
!LO:LB:g=original	!	!	!	!	!	!	!	!	!	!	!
=52	=52	=52	=52	=52	=52	=52	=52	=52	=52	=52	=52
4G\	6 5	2.r	.	2.r	.	2.r	.	2.r	.	.	.
4A\	6 4	.	.	.	.	.	.	.	.	.	.
4AA/	3	.	.	.	.	.	.	.	.	.	.
=53	=53	=53	=53	=53	=53	=53	=53	=53	=53	=53	=53
[2.D\	5 3	2.d\	Et	2.d\	Et	2.f#\	Et	2.a\	Et	.	.
=54	=54	=54	=54	=54	=54	=54	=54	=54	=54	=54	=54
2.D\_	6 4	2.d\	in	2.d\	in	2.g\	in	2.b\	in	.	.
!	!	!	!	!	!	!	!	!LO:LB:g=original	!	!	!
=55	=55	=55	=55	=55	=55	=55	=55	=55	=55	=55	=55
2.D\]	5 3	4.d\	ſae-	4.d\	sae-	4.f#\	sae-	4.a\	sae-	4ff#|\	A-
.	.	.	.	.	.	.	.	.	.	8gg\L	.
.	.	8d\	-cu-	8d\	-cu-	8f#\	-cu-	8a\	-cu-	8ff#\	.
.	.	4d\	-la	4d\	-la	4f#\	-la	4a\	-la	8gg\	.
.	.	.	.	.	.	.	.	.	.	8ee\J	.
=56	=56	=56	=56	=56	=56	=56	=56	=56	=56	=56	=56
2BB/	6	2B\	sae-	2d\	sae-	2g\	sae-	2b\	sae-	4ff#|\	.
.	.	.	.	.	.	.	.	.	.	8aa\L	.
.	.	.	.	.	.	.	.	.	.	8ff#\	.
4C#/	7 5	4c#\	-cu-	4e\	-cu-	4g\	-cu-	4b\	-cu-	8gg\	.
.	.	.	.	.	.	.	.	.	.	8ee\J	.
!LO:LB:g=original	!	!	!	!	!	!LO:LB:g=original	!	!	!	!	!
=57	=57	=57	=57	=57	=57	=57	=57	=57	=57	=57	=57
4D\	6 4	4d\	-lo-	4d\	-lo-	4g\	-lo-	4b\	-lo-	4ff#\	.
4D\	3	2D/	-rum	2d\	-rum	2f#\	-rum	2a\	-rum	4ff#\	.
4D\	.	.	.	.	.	.	.	.	.	4ee\	.
!	!	!LO:LB:g=original	!	!LO:LB:g=original	!	!	!	!	!	!LO:LB:g=original	!
=58	=58	=58	=58	=58	=58	=58	=58	=58	=58	=58	=58
!LO:TX:a:i:t=Solo	!	!LO:TX:b:t=2	!	!LO:TX:b:t=2	!	!LO:TX:b:t=2	!	!LO:TX:b:t=2	!	!	!
!	!	!LO:N:vis=0	!	!LO:N:vis=0	!	!LO:N:vis=0	!	!LO:N:vis=0	!	!	!
4D\	.	1.r	.	1.r	.	1.r	.	1.r	.	4ff#\	.
4r	.	.	.	.	.	.	.	.	.	8aa\L	.
.	.	.	.	.	.	.	.	.	.	8ff#\	.
4AA/	7	.	.	.	.	.	.	.	.	8gg\	.
.	.	.	.	.	.	.	.	.	.	8ee\J	.
=59	=59	=59	=59	=59	=59	=59	=59	=59	=59	=59	=59
4D\	.	.	.	.	.	.	.	.	.	4ff#|\	.
4r	.	.	.	.	.	.	.	.	.	8aa\L	.
.	.	.	.	.	.	.	.	.	.	8ff#\	.
4AA/	7	.	.	.	.	.	.	.	.	8gg\	.
.	.	.	.	.	.	.	.	.	.	8ee\J	.
=60	=60	=60	=60	=60	=60	=60	=60	=60	=60	=60	=60
!LO:TX:a:i:t=tutti	!	!	!	!	!	!	!	!	!	!	!
4D\	.	4r	.	4r	.	4r	.	4r	.	4ff#\	.
4D\	.	4d\	a-	4f#\	a-	2a\	a-	4dd\	a-	4ff#\	.
4AA/	.	4A\	.	4e\	.	.	.	4cc#\	.	4ee\	.
=61	=61	=61	=61	=61	=61	=61	=61	=61	=61	=61	=61
4D\	.	4D/	-men	4f#\	-men	4a\	-men	4dd\	-men	4ff#\	.
4r	.	4r	.	4r	.	4r	.	4r	.	4ff#\	.
!LO:TX:a:i:t=Solo	!	!	!	!	!	!	!	!	!	!	!
4AA/	7	4r	.	4r	.	4r	.	4r	.	4ee\	.
!LO:LB:g=original	!	!	!	!	!	!	!	!LO:LB:g=original	!	!LO:LB:g=original	!
=62	=62	=62	=62	=62	=62	=62	=62	=62	=62	=62	=62
!	!	!LO:TX:b:t=1	!	!LO:TX:b:t=1	!	!LO:TX:b:t=1	!	!LO:TX:b:t=1	!	!	!
4D\	.	2.r	.	2.r	.	2.r	.	2.r	.	4dd\	-men
4r	.	.	.	.	.	.	.	.	.	4r	.
4AA/	7	.	.	.	.	.	.	.	.	4r	.
=63	=63	=63	=63	=63	=63	=63	=63	=63	=63	=63	=63
!LO:TX:a:i:t=tutti	!	!	!	!	!	!	!	!	!	!	!
4D\	.	4r	.	4r	.	4r	.	4r	.	2.ryy	.
4D\	.	4d\	a-	4f#\	a-	2a\	a-	4dd\	a-	.	.
4AA/	.	4A\	.	4e\	.	.	.	4cc#\	.	.	.
!	!	!	!	!	!	!LO:LB:g=original	!	!	!	!	!
=64	=64	=64	=64	=64	=64	=64	=64	=64	=64	=64	=64
4D\	.	4d\	.	4f#\	.	4a\	.	4dd\	.	2.ryy	.
4D\	.	4d\	.	4f#\	.	2a\	.	4dd\	.	.	.
4AA/	.	4A\	.	4e\	.	.	.	4cc#\	.	.	.
!	!	!LO:LB:g=original	!	!LO:LB:g=original	!	!	!	!	!	!	!
=65	=65	=65	=65	=65	=65	=65	=65	=65	=65	=65	=65
4D\	.	4D/	-men	4d\	-men	4a\	-men	4dd\	-men	2.ryy	.
4r	.	4r	.	4r	.	4r	.	4r	.	.	.
4r	.	4r;	.	4r;	.	4r;	.	4r	.	.	.
==	==	==	==	==	==	==	==	==	==	==	==
*-	*-	*-	*-	*-	*-	*-	*-	*-	*-	*-	*-
!!!system-decoration: s1[(s2,s3,s4,s5)]s6
!!!RDF**kern: | = vertical stroke
!!!ENC: Marta Lawrence
!!!END: 2021-03-24
!!!ENC: Mateusz Solarz
!!!END: 2021-03-16
